assets/svg/1F3C9.svg

<svg xmlns="http://www.w3.org/2000/svg" viewBox="0 0 64 64" enable-background="new 0 0 64 64"><path fill="#db7c27" d="m49.33 16.528c-.041-.05-.076-.104-.112-.153-5.398-6.981-12.318-11.779-19.284-13.995-6.609-2.481-14.862-3.66-24.22-.902 0 0-8.683 10.45-4.694 28.09.745 4.01 2.211 8.093 4.389 12.04.44.879.91 1.771 1.415 2.677l.136-.104c.683 1.063 1.42 2.114 2.215 3.143.04.053.082.101.119.149.04.051.074.102.114.154 5.394 6.978 12.317 11.777 19.283 13.996 6.606 2.479 14.861 3.659 24.21.9 0 0 8.687-10.451 4.693-28.09-.746-4-2.209-8.096-4.387-12.04-.44-.877-.909-1.77-1.415-2.676l-.133.105c-.686-1.066-1.425-2.118-2.218-3.148-.041-.046-.078-.094-.118-.144"/><path fill="#bc6228" d="m39.923 52.938c-6.6-2.5-13.292-7.474-18.689-14.455-.038-.05-.076-.1-.114-.148-.042-.051-.082-.099-.118-.15-.797-1.03-1.538-2.076-2.235-3.133l-.117.093c-.521-.897-1-1.775-1.461-2.642-2.239-3.896-3.821-7.895-4.73-11.771-2.486-9.116-1.518-16.09-.067-20.605-2.156.239-4.382.675-6.675 1.352 0 0-8.683 10.448-4.694 28.09.745 4.01 2.208 8.096 4.387 12.04.438.881.909 1.771 1.415 2.677l.133-.104c.688 1.065 1.423 2.116 2.218 3.145.04.051.08.099.119.147.041.051.076.104.112.154 5.397 6.979 12.317 11.78 19.284 13.995 6.606 2.48 14.863 3.659 24.22.902 0 0 1.882-2.271 3.497-6.479-6.143.365-11.73-1.037-16.481-3.105"/><g fill="#25333a"><path d="m9.594 8.953c0 0 7.24 18.38 38.648 49.998l1.062-.818c0 0-37.555-40.41-38.45-50.16"/><path d="m20.2 34.26c3.678-1.877 7.836-3.901 10.159-7.462 1.283-1.968-1.494-3.988-2.79-1.994-1.972 3.02-5.477 4.66-8.595 6.254-2.124 1.082-.902 4.288 1.226 3.202l0 0"/><path d="m23.88 40.557c3.931-2.437 8.05-5.206 10.223-9.364 1.086-2.094-2.201-3.266-3.286-1.18-1.815 3.483-5.752 5.821-9.02 7.849-2.035 1.26.071 3.942 2.084 2.695l0 0"/><path d="m27.567 45.03c3.959-2.098 7.791-4.764 10.285-8.537 1.3-1.961-1.479-3.977-2.789-1.994-2.134 3.229-5.324 5.526-8.725 7.328-2.1 1.116-.882 4.323 1.229 3.203l0 0"/><path d="m19.02 28.626c2.415-1.55 4.706-3.146 6.681-5.24 1.64-1.738-1.162-3.722-2.792-1.993-1.72 1.823-3.871 3.19-5.969 4.539-2.02 1.292.084 3.977 2.08 2.694l0 0"/><path d="m34.13 47.751c2.303-1.325 4.607-2.931 6.072-5.18 1.282-1.969-1.494-3.987-2.793-1.995-1.097 1.688-2.762 2.969-4.507 3.972-.875.504-1.446 1.393-1.082 2.339.303.793 1.429 1.371 2.31.864l0 0"/></g></svg>

<?xml version="1.0" encoding="utf-8"?>
<!-- Generator: Adobe Illustrator 16.0.0, SVG Export Plug-In . SVG Version: 6.00 Build 0)  -->
<!DOCTYPE svg PUBLIC "-//W3C//DTD SVG 1.1//EN" "http://www.w3.org/Graphics/SVG/1.1/DTD/svg11.dtd">
<svg version="1.1" id="Layer_1" xmlns="http://www.w3.org/2000/svg" xmlns:xlink="http://www.w3.org/1999/xlink" x="0px" y="0px"
	 width="64px" height="64px" viewBox="0 0 64 64" enable-background="new 0 0 64 64" xml:space="preserve">
<g>
	<path fill="#DB7C27" d="M49.329,16.528c-0.041-0.05-0.076-0.104-0.112-0.153C43.819,9.394,36.899,4.596,29.933,2.38
		C23.324-0.101,15.071-1.28,5.717,1.478c0,0-8.683,10.45-4.694,28.092c0.745,4.005,2.211,8.093,4.389,12.036
		c0.44,0.879,0.91,1.771,1.415,2.677l0.136-0.104c0.683,1.063,1.42,2.114,2.215,3.143c0.04,0.053,0.082,0.101,0.119,0.149
		c0.04,0.051,0.074,0.102,0.114,0.154c5.394,6.978,12.317,11.777,19.283,13.996C35.3,64.1,43.555,65.28,52.907,62.521
		c0,0,8.687-10.451,4.693-28.091c-0.746-4.005-2.209-8.096-4.387-12.039c-0.44-0.877-0.909-1.77-1.415-2.676l-0.133,0.105
		c-0.686-1.066-1.425-2.118-2.218-3.148C49.406,16.626,49.369,16.578,49.329,16.528z"/>
	<path fill="#BC6228" d="M39.923,52.938c-6.6-2.5-13.292-7.474-18.689-14.455c-0.038-0.05-0.076-0.1-0.114-0.148
		c-0.042-0.051-0.082-0.099-0.118-0.15c-0.797-1.03-1.538-2.076-2.235-3.133l-0.117,0.093c-0.521-0.897-1.005-1.775-1.461-2.642
		c-2.239-3.896-3.821-7.895-4.73-11.771c-2.486-9.116-1.518-16.085-0.067-20.605C10.236,0.366,8.01,0.802,5.717,1.479
		c0,0-8.683,10.448-4.694,28.091c0.745,4.005,2.208,8.096,4.387,12.036c0.438,0.881,0.909,1.771,1.415,2.677l0.133-0.104
		c0.688,1.065,1.423,2.116,2.218,3.145c0.04,0.051,0.08,0.099,0.119,0.147c0.041,0.051,0.076,0.104,0.112,0.154
		c5.397,6.979,12.317,11.78,19.284,13.995c6.606,2.48,14.863,3.659,24.216,0.902c0,0,1.882-2.271,3.497-6.479
		C50.261,56.408,44.674,55.006,39.923,52.938z"/>
	<path fill="#25333A" d="M9.594,8.953c0,0,7.24,18.38,38.648,49.998l1.062-0.818c0,0-37.555-40.407-38.45-50.156"/>
	<g>
		<g>
			<path fill="#25333A" d="M20.198,34.263c3.678-1.877,7.836-3.901,10.159-7.462c1.283-1.968-1.494-3.988-2.79-1.994
				c-1.972,3.02-5.477,4.66-8.595,6.254C16.848,32.143,18.07,35.349,20.198,34.263L20.198,34.263z"/>
		</g>
		<g>
			<path fill="#25333A" d="M23.88,40.557c3.931-2.437,8.053-5.206,10.223-9.364c1.086-2.094-2.201-3.266-3.286-1.18
				c-1.815,3.483-5.752,5.821-9.021,7.849C19.761,39.122,21.867,41.804,23.88,40.557L23.88,40.557z"/>
		</g>
		<g>
			<path fill="#25333A" d="M27.567,45.033c3.959-2.098,7.791-4.764,10.285-8.537c1.3-1.961-1.479-3.977-2.789-1.994
				c-2.134,3.229-5.324,5.526-8.725,7.328C24.238,42.946,25.456,46.153,27.567,45.033L27.567,45.033z"/>
		</g>
		<g>
			<path fill="#25333A" d="M19.016,28.626c2.415-1.55,4.706-3.146,6.681-5.24c1.64-1.738-1.162-3.722-2.792-1.993
				c-1.72,1.823-3.871,3.19-5.969,4.539C14.917,27.224,17.02,29.909,19.016,28.626L19.016,28.626z"/>
		</g>
		<g>
			<path fill="#25333A" d="M34.135,47.751c2.303-1.325,4.607-2.931,6.072-5.18c1.282-1.969-1.494-3.987-2.793-1.995
				c-1.097,1.688-2.762,2.969-4.507,3.972c-0.875,0.504-1.446,1.393-1.082,2.339C32.128,47.68,33.254,48.258,34.135,47.751
				L34.135,47.751z"/>
		</g>
	</g>
</g>
</svg>
